X:4
T:Corkscrew
C:Corwin Zekley
L:1/8
M:4/4
K:Dmin
"Gm" DGBG"F" AFcA |"Gm" BAGF"Dm" DCB,A, |"Gm" G,3 A, B,DFD |"C" EDCA,"Dm" D4 |$"Gm" DGBG"F" AFcA | %5
"Gm" BAGF GABc | dB !trill(!B2!trill)!"C" fece |1"Dm" dcBA"Gm" G4 :|2"Dm" dcBA"Gm" GABc ||$ %9
"Gm" dB a2 g2 Bd | fB e2 d3 c | BG !trill(!G2!trill)! DGBd |"Dm" AF !trill(!F2!trill)! DFAc |$ %13
"Gm" dB a2 g2 Bd | fB e2 d3 c |"Bb" Bdfg"C" ecAc |"Dm" BAGF"Gm" GABc |$"Gm" dB a2 g2 Bd | %18
 fB e2 d3 c |"^(Eb)" BG !trill(!G2!trill)! DGBd |"Dm" AF !trill(!F2!trill)! DFAc |$ %21
"Cm" G_E !trill(!E2!trill)! CEGE |"Dm" FGAc d3 F |"Gm" DGBG"F" AFDF |"Dm" DCB,A,"Gm" G,4 |] %25

